dot_local/share/icons/Tela-dracula/scalable/apps/system-os-install.svg

<svg width="64" height="64" version="1.1" viewBox="0 0 16.933 16.933" xmlns="http://www.w3.org/2000/svg">
 <rect x="2.1166" y="1.5875" width="12.7" height="13.758" rx="1.5875" ry="1.5875" fill="#549bff" stroke-linecap="round" stroke-width=".55733"/>
 <path d="m8.4666 1.5875-4.7794 5.159e-4c-0.87153 0.0091-1.5704 0.7132-1.5704 1.587v4.2111a9.26 9.6304 0 0 0 8.4666 5.7583 9.26 9.6304 0 0 0 4.2333-1.0681v-8.9013c0-0.87946-0.70802-1.5875-1.5875-1.5875h-4.7624z" fill="#0000ff" opacity=".1" stroke-width="1.0198" style="paint-order:stroke markers fill"/>
 <path d="m8.4666 1.5875-4.7794 5.159e-4c-0.87153 0.0091-1.5704 0.7132-1.5704 1.587v10.583c0 0.87946 0.70802 1.5875 1.5875 1.5875h4.8524a10.583 11.007 0 0 0 6.26-5.6895v-6.4812c0-0.87946-0.70802-1.5875-1.5875-1.5875h-4.7624z" fill="#0000ff" opacity=".1" stroke-width="1.0198" style="paint-order:stroke markers fill"/>
 <path d="m5.292 3.969a3.175 3.175 0 0 0 3.175 3.175 3.175 3.175 0 0 0 3.175-3.175h-0.794a2.381 2.381 0 0 1-2.381 2.381 2.381 2.381 0 0 1-2.382-2.381z" fill="#ffffff" style="paint-order:stroke markers fill"/>
 <path d="m7.6728 8.7311v2.6458h-1.3229l2.1171 2.1161 2.1161-2.1161h-1.3229v-2.6458h-1.5875z" fill="#ffffff" style="paint-order:stroke markers fill"/>
</svg>

<svg xmlns="http://www.w3.org/2000/svg" width="64" height="64" viewBox="0 0 16.933 16.933"><rect width="12.7" height="13.758" x="2.117" y="1.587" fill="#549bff" rx="1.587" ry="1.587"/><path fill="#00f" d="m8.467 1.587-4.78.001c-.871.01-1.57.713-1.57 1.587v4.211a9.26 9.63 0 0 0 8.466 5.758 9.26 9.63 0 0 0 4.234-1.068V3.175c0-.88-.708-1.587-1.588-1.587H8.467z" opacity=".1" style="paint-order:stroke markers fill"/><path fill="#00f" d="m8.467 1.587-4.78.001c-.871.01-1.57.713-1.57 1.587v10.583c0 .88.708 1.588 1.587 1.588h4.853a10.583 11.007 0 0 0 6.26-5.69V3.175c0-.88-.708-1.588-1.588-1.588H8.467z" opacity=".1" style="paint-order:stroke markers fill"/><path fill="#fff" d="M5.292 3.969a3.175 3.175 0 0 0 3.175 3.175 3.175 3.175 0 0 0 3.175-3.175h-.794A2.381 2.381 0 0 1 8.467 6.35a2.381 2.381 0 0 1-2.382-2.381zM7.673 8.731v2.646H6.35l2.117 2.116 2.116-2.116H9.26V8.73H7.673z" style="paint-order:stroke markers fill"/></svg>
